X: 252	% 66
T: Fiddler's Dream
T: or Fiddler's Trouble
S: Viola Ruth "Pioneer Western Folk Tunes" 1948 p.24 #2
R: reel
Z: 2019 John Chambers <jc:trillian.mit.edu>
N: The rhythms are wrong between the strains; not fixed.
M: 2/4
L: 1/16
K: G	% and D
V: 1 name="66"
(A_B |\
=B)GFE DCB,A, | G,A,B,C DEGA | Bdef gfga | bgag edga |
bgag edef | gedB AGEF | GEDC B,DGA | BGAF G2 ::\
[K:D]\
[A3F3][AF][A2F2][A2F2] | Adde fecA |
cded cB(3(ABc) | dcdA BAFG |\
[A3F3][AF][A2F2][A2F2] | Adde fecA | cdef gecA | [d4F4] [d2F2] :|
